X: 28
T:Far Away Wedding (#138), The
M:6/8
L:1/8
S:Capt. F. O'Neill
K:G
A|:FDD ADD|FDF AGF|GEE BEE|BEB "tr"BAG|
FDD ADD|FDD AGF|EFA B2 A|BdF E2 D:|
|:FAA A2 B|FAA AGF|GBB B2 A|GBB BAG|
FAA A2 B|FAA AGF|EFA B2 A|BdF E2 D:||

